X:2125 
T:Jenny hug eh, Hug eh my fainey sourey lhien 
C:Tom Kermode, Bradda 
C:Traditional
O:Isle of Man
Z:Clague collection
B:Kiaull Vannin #125 
N:Hi! son hug eh ashig eh. Hi! sonhug ehas hug eh. Ta hug errolley as daunsey. Hug ehmy fainey sourey hein.
M:3/8 
L:1/8
Q:180 
K:G 
G2B|BBB|BB2|A2c|ccc|cc2|G2B|BBB|B2B|GBB|BBB|G2E|| 

